X:49
T: The Walls of Time
C: Bill Monroe
S: From  "Bill Monroe 1936 - 1994"
S: MandoZine TablEdit Archives
Z: TablEdited by Mike Stangeland for MandoZine
L: 1/8
Q: 340
M: 4/4
K: C
 z4 CC EG | "Bill's Kick-Off""F"F/F/F/F/ F/F/F/F/ FE FG | "G"_BA GF ^D=D C_B, |
 "C"C2 [E2C2] [E2C2] EG | C8 |
 z4 (3CDE (3F^FG | "Bill's Break""C"c/c/c/c/ c/c/c/c/ c/c/c/c/ ^d/^d/^d/^d/ |
 c/c/c/c/ cc _BG FD | c/c/c/c/ c/c/c/c/ cD Ec | C/C/C/C/ C2 CD EG |
 c/c/c/c/ c/c/c/c/ cc c^d | ge c_B GF EC |
 "F"E/F/F/F/ F/F/F/F/ E/F/F/F/ F/F/F/F/ | E/F/F/F/ E/F/F/F/ E/F/E/D/ C/D/E/G/ |
 c/c/c/c/ c/c/c/c/ c/c/c/c/ ^d/^d/^d/^d/ | c/c/c/c/ cc _BG FD | G/c/c/c/ c/c/c/c/ cD Ec |
 C4 zD EG | F/F/F/F/ F/F/F/F/ FE FG | _BA GF ^D=D C_B, | C/C/C/C/ C/C/C/C/ CE FG |
